!!!SOCIAL_FUNCTION:	songs used in the treatment of the sick
!!!PDT:	1929
!!!OTL: No_68_Song_Concerning_the_Black_Snake.krn
!!!REG: Southwest
!!!LANG: Non-Tone
!!!LING_GROUP: Uto-Aztecan
**kern
*staff1
=1-
*clefF4
*k[f#c#g#d#]
*M2/4
8.c#\L
16B\Jk
8.c#\L
16c#\Jk
=2
4c#\
8.B\L
16G#\Jk
=3
4B\
(8.G#\L
16F#\Jk)
=4
4G#\
4G#\
=5
8.G#\L
16G#\Jk
4c#\
=6!|:
8.c#\L
16B\Jk
(8.B\L
16G#\Jk)
=7
4G#\
8.G#\L
16E\Jk
=8
8.E\L
16E\Jk
8.C#/L
16E/Jk
=9
4E\
8.C#/L
16C#/Jk
=10
[2C#/
=11
8.C#/L]
16G#/Jk
4G#\
=12
8.G#\L
16F#\Jk
(8.F#\L
16E\Jk)
=13
4E\
8.E\L
16E\Jk
=14||
*M3/4
8.E\L
16E\Jk
8.E\L
16E\Jk
4C#/
=15||
*M2/4
8.E\L
16E\Jk
4E\
=16
[2E\
=17
2E\]
=18
8.E\L
16E\Jk
4c#\
==:|!
*-
